X: 1
T: The Booley House
R: slip jig
L: 1/8
M: 9/8
K: Dmaj
|:A2GF2A dcA |B2 c d2 g fdB|A2GF2A dcA|BdB AFA D3:|
f2 d d2 f agf|e2 d c2 e gfe|f2 d d2 f agf|efd cdB A3|
f2 d d2 f agf|e2 d c2 e gfe|d2 c B2 c dcB|efd cdB A3||



